X:372
T:Johnny Mickey's
M:2/4
L:1/8
K:D
"A"Ac EF|A2 "D"Af|"A"ec BA|"E"ec Bc/B/|
"A"Ac EF|A2 "D"Af|"A"ec "E"BA/B/|"A"cA A2:|
|:"A"ce ce|"D"a2 af|"A"ec BA|"E"ec BA/B/|
"A"ce ce|"D"a2 af|"A"ec B"E"A/B/|"A"cA A2:|
